vsi/list-unordered_light.svg

<svg viewBox="0 0 16 16" fill="none" xmlns="http://www.w3.org/2000/svg" height="1em" width="1em">
  <path fill-rule="evenodd" clip-rule="evenodd" d="M2.00024 3H1.00024V4H2.00024V3ZM2.00024 6H1.00024V7H2.00024V6ZM1.00024 9H2.00024V10H1.00024V9ZM2.00024 12H1.00024V13H2.00024V12ZM4.00024 3H15.0002V4H4.00024V3ZM15.0002 6H4.00024V7H15.0002V6ZM4.00024 9H15.0002V10H4.00024V9ZM15.0002 12H4.00024V13H15.0002V12Z" fill="#424242"/>
</svg>

<svg viewBox="0 0 16 16" fill="none" xmlns="http://www.w3.org/2000/svg" height="1em" width="1em">
  <path fill-rule="evenodd" clip-rule="evenodd" d="M2 3H1v1h1V3Zm0 3H1v1h1V6ZM1 9h1v1H1V9Zm1 3H1v1h1v-1Zm2-9h11v1H4V3Zm11 3H4v1h11V6ZM4 9h11v1H4V9Zm11 3H4v1h11v-1Z" fill="#424242"/>
</svg>
